Sources/FrostedUI/Resources/Icons.xcassets/telegramFilled32.imageset/telegram-filled-32.svg

<svg width="32" height="32" viewBox="0 0 32 32" fill="none" xmlns="http://www.w3.org/2000/svg" data-fui-icon="true">
  <path
    d="M28.5801 4.43536C28.7936 4.43175 29.2689 4.48412 29.5791 4.73419C29.8369 4.94502 29.91 5.2305 29.9463 5.43048C29.9785 5.63065 30.0224 6.08576 29.9863 6.44122C29.5996 10.5051 27.9196 20.3669 27.0654 24.9188C26.7069 26.8448 25.9936 27.4905 25.3047 27.5535C23.8061 27.6907 22.67 26.5672 21.2197 25.6199C18.9517 24.1371 17.6705 23.2141 15.4668 21.7674C12.9211 20.0954 14.5722 19.1763 16.0225 17.6746C16.401 17.2816 22.9965 11.3031 23.125 10.7576C23.1412 10.6898 23.1576 10.4369 23.0049 10.3035C22.8559 10.1698 22.6337 10.2147 22.4727 10.2508C22.2429 10.3022 18.6208 12.6916 11.5947 17.4168C10.5676 18.121 9.63667 18.4641 8.79883 18.4461C7.88019 18.4262 6.10817 17.9272 4.79102 17.5008C3.17963 16.9776 1.89423 16.7009 2.00684 15.8123C2.06324 15.3497 2.7041 14.8762 3.9248 14.3924C11.4424 11.1284 16.4542 8.976 18.96 7.93634C26.1223 4.96787 27.6092 4.4527 28.5801 4.43536Z"
    fill="currentColor"
  />
</svg>

<svg xmlns="http://www.w3.org/2000/svg" width="32" height="32" fill="none" data-fui-icon="true" viewBox="0 0 32 32"><path fill="currentColor" d="M28.58 4.435c.214-.003.689.05 1 .3.257.21.33.495.366.695.032.2.076.656.04 1.011-.386 4.064-2.066 13.926-2.92 18.478-.36 1.926-1.072 2.572-1.761 2.634-1.499.138-2.635-.986-4.085-1.933-2.268-1.483-3.55-2.406-5.753-3.853-2.546-1.672-.895-2.59.556-4.092.378-.393 6.974-6.372 7.102-6.917.016-.068.033-.321-.12-.454-.15-.134-.371-.09-.532-.053-.23.051-3.852 2.44-10.878 7.166q-1.54 1.056-2.796 1.03c-.919-.02-2.69-.52-4.008-.946-1.611-.523-2.897-.8-2.784-1.689q.085-.694 1.918-1.42Q15.202 9.496 18.96 7.936c7.162-2.968 8.65-3.483 9.62-3.5"/></svg>
